;FLAVOR:Marlin
;TIME:25166
;Filament used: 8.17764m
;Layer height: 0.1
;MINX:47.223
;MINY:57.618
;MINZ:0.3
;MAXX:169.193
;MAXY:179.588
;MAXZ:30.8
;Generated with Cura_SteamEngine 4.11.0
M140 S60
M105
M190 S60
M104 S210
M105
M109 S210
M82 ;absolute extrusion mode
; Ender 3 Custom Start G-code
G92 E0 ; Reset Extruder
G28 ; Home all axes
G1 Z2.0 F3000 ; Move Z Axis up little to prevent scratching of Heat Bed
G1 X0.1 Y20 Z0.3 F5000.0 ; Move to start position
G1 X0.1 Y200.0 Z0.3 F1500.0 E15 ; Draw the first line
G1 X0.4 Y200.0 Z0.3 F5000.0 ; Move to side a little
G1 X0.4 Y20 Z0.3 F1500.0 E30 ; Draw the second line
G92 E0 ; Reset Extruder
G1 Z2.0 F3000 ; Move Z Axis up little to prevent scratching of Heat Bed
G1 X5 Y20 Z0.3 F5000.0 ; Move over to prevent blob squish
M141 S0
G92 E0
G92 E0
G1 F2400 E-3
;LAYER_COUNT:306
;LAYER:0
M107
G0 F6000 X51.931 Y60.112 Z0.3
;TYPE:SKIRT
G1 F2400 E0
G1 F1200 X52.682 Y59.55 E0.0468
G1 X53.478 Y59.054 E0.09359
G1 X54.313 Y58.627 E0.14038
G1 X55.182 Y58.273 E0.18719
G1 X56.077 Y57.995 E0.23395
G1 X56.993 Y57.793 E0.28075
G1 X57.923 Y57.671 E0.32754
G1 X58.525 Y57.634 E0.35763
G1 X58.909 Y57.624 E0.3768
G1 X59.452 Y57.618 E0.40389
G1 X156.82 Y57.618 E5.2616
G1 X157.678 Y57.629 E5.30441
G1 X158.614 Y57.682 E5.35118
G1 X159.543 Y57.815 E5.398
G1 X160.456 Y58.027 E5.44476
G1 X161.349 Y58.315 E5.49157
G1 X162.213 Y58.679 E5.53835
G1 X163.044 Y59.115 E5.58516
G1 X163.834 Y59.62 E5.63194
G1 X164.578 Y60.19 E5.6787
G1 X164.957 Y60.522 E5.70384
G1 X165.066 Y60.622 E5.71122
G1 X165.325 Y60.867 E5.72901
G1 X165.514 Y61.052 E5.7422
G1 X165.732 Y61.272 E5.75765
G1 X166.096 Y61.649 E5.7838
G1 X166.719 Y62.351 E5.83062
G1 X167.279 Y63.104 E5.87744
G1 X167.772 Y63.901 E5.9242
G1 X168.197 Y64.737 E5.97098
G1 X168.548 Y65.607 E6.01779
G1 X168.824 Y66.503 E6.06456
G1 X169.023 Y67.42 E6.11138
G1 X169.143 Y68.35 E6.15816
G1 X169.175 Y68.881 E6.1847
G1 X169.182 Y69.069 E6.19408
G1 X169.189 Y69.362 E6.20871
G1 X169.193 Y69.763 E6.22871
G1 X169.192 Y167.372 E11.09845
G1 X169.182 Y168.074 E11.13347
G1 X169.129 Y169.01 E11.18024
G1 X168.996 Y169.938 E11.22702
G1 X168.784 Y170.852 E11.27383
G1 X168.496 Y171.745 E11.32064
G1 X168.132 Y172.609 E11.36741
G1 X167.696 Y173.44 E11.41423
G1 X167.191 Y174.23 E11.46101
G1 X166.621 Y174.974 E11.50777
G1 X166.248 Y175.398 E11.53594
G1 X166.107 Y175.55 E11.54629
G1 X165.8 Y175.868 E11.56834
G1 X165.609 Y176.059 E11.58181
G1 X165.188 Y176.468 E11.6111
G1 X164.488 Y177.092 E11.65788
G1 X163.737 Y177.654 E11.70468
G1 X162.942 Y178.151 E11.75145
G1 X162.107 Y178.578 E11.79824
G1 X161.238 Y178.932 E11.84506
G1 X160.343 Y179.21 E11.89181
G1 X159.427 Y179.412 E11.93861
G1 X158.497 Y179.535 E11.98541
G1 X157.892 Y179.572 E12.01565
G1 X157.508 Y179.582 E12.03482
G1 X156.965 Y179.588 E12.06191
G1 X59.44 Y179.587 E16.92745
G1 X58.738 Y179.577 E16.96248
G1 X57.802 Y179.524 E17.00925
G1 X56.874 Y179.391 E17.05602
G1 X55.96 Y179.179 E17.10283
G1 X55.067 Y178.891 E17.14964
G1 X54.203 Y178.527 E17.19642
G1 X53.372 Y178.091 E17.24324
G1 X52.582 Y177.586 E17.29001
G1 X51.838 Y177.016 E17.33677
G1 X51.412 Y176.641 E17.36509
G1 X51.09 Y176.338 E17.38715
G1 X50.995 Y176.246 E17.39374
G1 X50.75 Y176.001 E17.41103
G1 X50.335 Y175.573 E17.44077
G1 X49.711 Y174.873 E17.48756
G1 X49.15 Y174.122 E17.53432
G1 X48.654 Y173.325 E17.58116
G1 X48.228 Y172.49 E17.62793
G1 X47.875 Y171.621 E17.67472
G1 X47.597 Y170.725 E17.72152
G1 X47.396 Y169.809 E17.76831
G1 X47.274 Y168.879 E17.81511
G1 X47.237 Y168.249 E17.84659
G1 X47.229 Y167.91 E17.86351
G1 X47.223 Y167.348 E17.89155
G1 X47.224 Y69.836 E22.75644
G1 X47.234 Y69.133 E22.79152
G1 X47.287 Y68.196 E22.83834
G1 X47.42 Y67.268 E22.88511
G1 X47.632 Y66.354 E22.93192
G1 X47.92 Y65.462 E22.97869
G1 X48.284 Y64.597 E23.02551
G1 X48.72 Y63.767 E23.07228
G1 X49.225 Y62.976 E23.1191
G1 X49.795 Y62.232 E23.16586
G1 X50.193 Y61.782 E23.19583
G1 X50.524 Y61.432 E23.21987
G1 X50.818 Y61.137 E23.24064
G1 X51.231 Y60.736 E23.26936
G1 X51.931 Y60.112 E23.31615
G0 F6000 X52.198 Y60.411
G1 F1200 X52.936 Y59.861 E23.36207
G1 X53.719 Y59.377 E23.40799
G1 X54.541 Y58.963 E23.45391
G1 X55.397 Y58.622 E23.49988
G1 X56.278 Y58.356 E23.54579
G1 X57.179 Y58.168 E23.59171
G1 X58.538 Y58.034 E23.65984
G1 X58.913 Y58.024 E23.67856
G1 X59.452 Y58.018 E23.70545
G1 X156.82 Y58.018 E28.56316
G1 X157.672 Y58.029 E28.60567
G1 X158.591 Y58.082 E28.65159
G1 X159.502 Y58.215 E28.69752
G1 X160.398 Y58.426 E28.74345
G1 X161.273 Y58.714 E28.78941
G1 X162.119 Y59.077 E28.83533
G1 X162.93 Y59.512 E28.88125
G1 X163.701 Y60.016 E28.9272
G1 X164.687 Y60.817 E28.99058
G1 X164.796 Y60.917 E28.99796
G1 X165.045 Y61.153 E29.01508
G1 X165.234 Y61.338 E29.02827
G1 X165.445 Y61.55 E29.04319
G1 X165.809 Y61.927 E29.06934
G1 X166.419 Y62.617 E29.11529
G1 X166.967 Y63.357 E29.16123
G1 X167.448 Y64.141 E29.20712
G1 X167.86 Y64.965 E29.25308
G1 X168.199 Y65.821 E29.29901
G1 X168.462 Y66.703 E29.34493
G1 X168.648 Y67.605 E29.39088
G1 X168.776 Y68.896 E29.4556
G1 X168.783 Y69.084 E29.46499
G1 X168.789 Y69.366 E29.47906
G1 X168.793 Y69.763 E29.49887
G1 X168.792 Y167.366 E34.3683
G1 X168.782 Y168.068 E34.40333
G1 X168.729 Y168.987 E34.44925
G1 X168.596 Y169.898 E34.49518
G1 X168.385 Y170.794 E34.54111
G1 X168.097 Y171.669 E34.58706
G1 X167.734 Y172.515 E34.63299
G1 X167.299 Y173.326 E34.67891
G1 X166.795 Y174.097 E34.72486
G1 X165.954 Y175.126 E34.79116
G1 X165.813 Y175.278 E34.80151
G1 X165.515 Y175.588 E34.82296
G1 X165.33 Y175.772 E34.83598
G1 X164.909 Y176.181 E34.86526
G1 X164.222 Y176.793 E34.91116
G1 X163.484 Y177.343 E34.95708
G1 X162.7 Y177.828 E35.00308
G1 X161.878 Y178.242 E35.04899
G1 X161.023 Y178.583 E35.09492
G1 X160.142 Y178.849 E35.14083
G1 X159.241 Y179.038 E35.18676
G1 X157.879 Y179.172 E35.25504
G1 X157.504 Y179.182 E35.27375
G1 X156.965 Y179.188 E35.30065
G1 X59.446 Y179.187 E40.16589
G1 X58.744 Y179.177 E40.20091
G1 X57.825 Y179.124 E40.24684
G1 X56.914 Y178.991 E40.29277
G1 X56.018 Y178.78 E40.3387
G1 X55.143 Y178.492 E40.38465
G1 X54.297 Y178.129 E40.43058
G1 X53.486 Y177.694 E40.4765
G1 X52.715 Y177.19 E40.52245
G1 X51.684 Y176.347 E40.58889
G1 X51.368 Y176.051 E40.61049
G1 X51.273 Y175.959 E40.61709
G1 X51.037 Y175.723 E40.63374
G1 X50.622 Y175.295 E40.66349
G1 X50.01 Y174.607 E40.70943
G1 X49.461 Y173.868 E40.75535
G1 X48.977 Y173.085 E40.80128
G1 X48.564 Y172.262 E40.84722
G1 X48.223 Y171.407 E40.89314
G1 X47.958 Y170.525 E40.93909
G1 X47.77 Y169.624 E40.98501
G1 X47.662 Y168.709 E41.03097
G1 X47.637 Y168.237 E41.05456
G1 X47.629 Y167.906 E41.07107
G1 X47.623 Y167.348 E41.09891
G1 X47.624 Y69.841 E45.96356
G1 X47.634 Y69.138 E45.99863
G1 X47.687 Y68.219 E46.04456
G1 X47.82 Y67.308 E46.09049
G1 X48.031 Y66.412 E46.13642
G1 X48.319 Y65.538 E46.18233
G1 X48.682 Y64.691 E46.2283
G1 X49.117 Y63.88 E46.27421
G1 X49.621 Y63.109 E46.32017
G1 X50.486 Y62.055 E46.38819
G1 X50.81 Y61.712 E46.41173
G1 X51.097 Y61.424 E46.43202
G1 X51.51 Y61.023 E46.46074
G1 X52.198 Y60.411 E46.50668
G0 F6000 X52.464 Y60.71
G1 F1200 X53.189 Y60.172 E46.55172
G1 X53.96 Y59.701 E46.59679
G1 X54.769 Y59.3 E46.64184
G1 X55.61 Y58.971 E46.6869
G1 X56.477 Y58.719 E46.73194
G1 X57.363 Y58.544 E46.777
G1 X58.552 Y58.434 E46.83657
G1 X58.918 Y58.424 E46.85484
G1 X59.452 Y58.418 E46.88148
G1 X156.82 Y58.418 E51.73919
G1 X157.666 Y58.429 E51.7814
G1 X158.568 Y58.482 E51.82648
G1 X159.461 Y58.614 E51.87151
G1 X160.34 Y58.825 E51.91661
G1 X161.196 Y59.113 E51.96167
G1 X162.023 Y59.475 E52.00671
G1 X162.815 Y59.909 E52.05177
G1 X163.565 Y60.412 E52.09682
G1 X164.417 Y61.112 E52.15183
G1 X164.526 Y61.212 E52.15921
G1 X164.765 Y61.439 E52.17566
G1 X164.954 Y61.624 E52.18885
G1 X165.157 Y61.828 E52.20321
G1 X165.521 Y62.205 E52.22936
G1 X166.119 Y62.882 E52.27442
G1 X166.655 Y63.609 E52.31948
G1 X167.124 Y64.381 E52.36455
G1 X167.523 Y65.191 E52.4096
G1 X167.849 Y66.033 E52.45464
G1 X168.099 Y66.901 E52.49971
G1 X168.272 Y67.787 E52.54475
G1 X168.376 Y68.91 E52.60101
G1 X168.383 Y69.098 E52.6104
G1 X168.389 Y69.371 E52.62402
G1 X168.393 Y69.763 E52.64358
G1 X168.392 Y167.36 E57.51271
G1 X168.382 Y168.062 E57.54774
G1 X168.329 Y168.964 E57.59282
G1 X168.197 Y169.857 E57.63785
G1 X167.986 Y170.735 E57.68291
G1 X167.698 Y171.591 E57.72796
G1 X167.336 Y172.419 E57.77305
G1 X166.902 Y173.211 E57.8181
G1 X166.399 Y173.961 E57.86316
G1 X165.661 Y174.854 E57.92096
G1 X165.52 Y175.006 E57.9313
G1 X165.229 Y175.308 E57.95222
G1 X165.051 Y175.485 E57.96475
G1 X164.63 Y175.894 E57.99403
G1 X163.955 Y176.494 E58.03909
G1 X163.23 Y177.032 E58.08413
G1 X162.46 Y177.504 E58.12919
G1 X161.651 Y177.905 E58.17423
G1 X160.81 Y178.234 E58.21929
G1 X159.943 Y178.487 E58.26435
G1 X159.057 Y178.662 E58.3094
G1 X157.865 Y178.772 E58.36913
G1 X157.499 Y178.782 E58.38739
G1 X156.965 Y178.788 E58.41403
G1 X59.452 Y178.787 E63.27898
G1 X58.75 Y178.777 E63.314
G1 X57.848 Y178.724 E63.35908
G1 X56.955 Y178.592 E63.40412
G1 X56.077 Y178.381 E63.44917
G1 X55.221 Y178.093 E63.49423
G1 X54.393 Y177.731 E63.53931
G1 X53.601 Y177.297 E63.58437
G1 X52.851 Y176.794 E63.62942
G1 X51.956 Y176.054 E63.68736
G1 X51.646 Y175.763 E63.70857
G1 X51.551 Y175.671 E63.71517
G1 X51.324 Y175.444 E63.73119
G1 X50.909 Y175.016 E63.76093
G1 X50.31 Y174.341 E63.80595
G1 X49.773 Y173.615 E63.85101
G1 X49.302 Y172.844 E63.89608
G1 X48.901 Y172.035 E63.94113
G1 X48.573 Y171.194 E63.98616
G1 X48.321 Y170.326 E64.03126
G1 X48.147 Y169.44 E64.0763
G1 X48.037 Y168.225 E64.13717
G1 X48.029 Y167.901 E64.15334
G1 X48.023 Y167.348 E64.18093
G1 X48.024 Y69.847 E69.04527
G1 X48.034 Y69.144 E69.08035
G1 X48.087 Y68.242 E69.12543
G1 X48.219 Y67.349 E69.17046
G1 X48.43 Y66.471 E69.21551
G1 X48.718 Y65.615 E69.26057
G1 X49.08 Y64.788 E69.30561
G1 X49.514 Y63.996 E69.35067
G1 X50.016 Y63.245 E69.39574
G1 X50.778 Y62.328 E69.45522
G1 X51.095 Y61.993 E69.47823
G1 X51.376 Y61.711 E69.49809
G1 X51.789 Y61.31 E69.52681
G1 X52.464 Y60.71 E69.57187
G1 F2400 E66.57187
;MESH:body-C.stl
G0 F6000 X58.326 Y68.242
G0 X59.021 Y68.936
G0 X157.278 Y69.28
;TYPE:WALL-INNER
G1 F2400 E69.57187
G1 F1200 X59.138 Y69.28 E74.46809
G1 X59.076 Y69.28 E74.47118
G1 X59.138 Y69.218 E74.47236
G1 X157.278 Y69.218 E75.23317
G1 X157.34 Y69.28 E75.23755
G1 X157.278 Y69.28
G0 F6000 X157.531 Y69.472
G1 F1200 X157.593 Y69.534 E75.24192
G1 X157.593 Y167.674 E80.13815
G1 X157.531 Y167.736 E80.14252
G1 X157.531 Y167.674
G1 X157.531 Y69.534 E80.90334
G1 X157.531 Y69.472
G1 F2400 E77.90334
G0 F6000 X157.279 Y167.926
G1 F2400 E80.90334
G1 F1200 X157.341 Y167.926 E80.90643
G1 X157.279 Y167.988 E80.90761
G1 X59.139 Y167.988 E85.80383
G1 X59.077 Y167.926 E85.80821
G1 X59.139 Y167.926
G1 X157.279 Y167.926 E86.56902
G1 F2400 E83.56902
G0 F6000 X59.157 Y167.654
G0 X58.885 Y69.471
G1 F2400 E86.56902
G1 F1200 X58.885 Y69.533 E86.57212
G1 X58.885 Y167.673 E91.46834
G1 X58.885 Y167.735 E91.47143
G1 X58.823 Y167.673 E91.47261
G1 X58.823 Y69.533 E92.23343
G1 X58.885 Y69.471 E92.2346
G1 F2400 E89.2346
G0 F6000 X157.259 Y69.552
G0 X157.331 Y167.526
G1 F2400 E92.2346
G0 F6000 X157.131 Y167.526
;TYPE:WALL-OUTER
G1 F1200 X157.131 Y69.68 E97.11616
G1 X59.285 Y69.68 E101.99771
G1 X59.285 Y167.526 E106.87927
G1 X157.131 Y167.526 E111.76083
G0 F6000 X157.445 Y168.388
G1 F1200 X58.973 Y168.388 E116.67362
G1 X58.423 Y167.839 E116.71239
G1 X58.423 Y69.367 E121.62517
G1 X58.972 Y68.818 E121.66391
G1 X157.444 Y68.818 E126.5767
G1 X157.993 Y69.368 E126.61547
G1 X157.993 Y167.84 E131.52825
G1 X157.445 Y168.388 E131.56692
G0 F6000 X157.277 Y167.982
G0 X157.21 Y168.026
G1 F2400 E128.56692
;MESH:NONMESH
G0 F300 X157.21 Y168.026 Z0.4
G0 F6000 X157.278 Y69.28
;TIME_ELAPSED:163.317705
;LAYER:1
M106 S85
;TYPE:WALL-INNER
;MESH:body-C.stl
G1 F2400 E131.56692
G1 F1350 X59.138 Y69.28 E133.19899
G1 X59.076 Y69.28 E133.20002
G1 X59.138 Y69.218 E133.20042
G1 X157.278 Y69.218 E133.45402
G1 X157.34 Y69.28 E133.45548
G1 X157.278 Y69.28
G0 F7500 X157.531 Y69.472
G1 F1350 X157.593 Y69.534 E133.45694
G1 X157.593 Y167.674 E135.08901
G1 X157.531 Y167.736 E135.09047
G1 X157.531 Y167.674
G1 X157.531 Y69.534 E135.34408
G1 X157.531 Y69.472
G1 F2400 E132.34408
G0 F7500 X157.279 Y167.926
G1 F2400 E135.34408
G1 F1350 X157.341 Y167.926 E135.34511
G1 X157.279 Y167.988 E135.3455
G1 X59.139 Y167.988 E136.97757
G1 X59.077 Y167.926 E136.97903
G1 X59.139 Y167.926
G1 X157.279 Y167.926 E137.23264
G1 F2400 E134.23264
G0 F7500 X59.157 Y167.654
G0 X58.885 Y69.471
G1 F2400 E137.23264
G1 F1350 X58.885 Y69.533 E137.23367
G1 X58.885 Y167.673 E138.86574
G1 X58.885 Y167.735 E138.86678
G1 X58.823 Y167.673 E138.86717
G1 X58.823 Y69.533 E139.12077
G1 X58.885 Y69.471 E139.12116
G1 F2400 E136.12116
G0 F7500 X157.259 Y69.552
G0 X157.331 Y167.526
G1 F2400 E139.12116
G0 F7500 X157.131 Y167.526
;TYPE:WALL-OUTER
G1 F1350 X157.131 Y69.68 E140.74835
G1 X59.285 Y69.68 E142.37553
G1 X59.285 Y167.526 E144.00272
G1 X157.131 Y167.526 E145.62991
G0 F7500 X157.445 Y168.388
G1 F1350 X58.973 Y168.388 E147.2675
G1 X58.423 Y167.839 E147.28043
G1 X58.423 Y69.367 E148.91802
G1 X58.972 Y68.818 E148.93093
G1 X157.444 Y68.818 E150.56853
G1 X157.993 Y69.368 E150.58145
G1 X157.993 Y167.84 E152.21905
G1 X157.445 Y168.388 E152.23194
G0 F7500 X157.277 Y167.982
G0 X157.21 Y168.026
G1 F2400 E149.23194
;MESH:NONMESH
G0 F300 X157.21 Y168.026 Z0.5
G0 F7500 X157.278 Y69.28
;TIME_ELAPSED:241.103458
;LAYER:2
M106 S170
;TYPE:WALL-INNER
;MESH:body-C.stl
G1 F2400 E152.23194
G1 F1500 X59.138 Y69.28 E153.86401
G1 X59.076 Y69.28 E153.86504
G1 X59.138 Y69.218 E153.86543
G1 X157.278 Y69.218 E154.11904
G1 X157.34 Y69.28 E154.1205
G1 X157.278 Y69.28
G0 F9000 X157.531 Y69.472
G1 F1500 X157.593 Y69.534 E154.12196
G1 X157.593 Y167.674 E155.75403
G1 X157.531 Y167.736 E155.75549
G1 X157.531 Y167.674
G1 X157.531 Y69.534 E156.00909
G1 X157.531 Y69.472
G1 F2400 E153.00909
G0 F9000 X157.279 Y167.926
G1 F2400 E156.00909
G1 F1500 X157.341 Y167.926 E156.01013
G1 X157.279 Y167.988 E156.01052
G1 X59.139 Y167.988 E157.64259
G1 X59.077 Y167.926 E157.64405
G1 X59.139 Y167.926
G1 X157.279 Y167.926 E157.89766
G1 F2400 E154.89766
G0 F9000 X59.157 Y167.654
G0 X58.885 Y69.471
G1 F2400 E157.89766
G1 F1500 X58.885 Y69.533 E157.89869
G1 X58.885 Y167.673 E159.53076
G1 X58.885 Y167.735 E159.53179
G1 X58.823 Y167.673 E159.53218
G1 X58.823 Y69.533 E159.78579
G1 X58.885 Y69.471 E159.78618
G1 F2400 E156.78618
G0 F9000 X157.259 Y69.552
G0 X157.331 Y167.526
G1 F2400 E159.78618
G0 F9000 X157.131 Y167.526
;TYPE:WALL-OUTER
G1 F1500 X157.131 Y69.68 E161.41337
G1 X59.285 Y69.68 E163.04055
G1 X59.285 Y167.526 E164.66774
G1 X157.131 Y167.526 E166.29492
G0 F9000 X157.445 Y168.388
G1 F1500 X58.973 Y168.388 E167.93252
G1 X58.423 Y167.839 E167.94544
G1 X58.423 Y69.367 E169.58304
G1 X58.972 Y68.818 E169.59595
G1 X157.444 Y68.818 E171.23355
G1 X157.993 Y69.368 E171.24647
G1 X157.993 Y167.84 E172.88407
G1 X157.445 Y168.388 E172.89695
G0 F9000 X157.277 Y167.982
G0 X157.21 Y168.026
G1 F2400 E169.89695
;MESH:NONMESH
G0 F300 X157.21 Y168.026 Z0.6
G0 F9000 X157.278 Y69.28
;TIME_ELAPSED:311.494419
;LAYER:3
M106 S255
;TYPE:WALL-INNER
;MESH:body-C.stl
G1 F2400 E172.89695
G1 F1500 X59.138 Y69.28 E174.52903
G1 X59.076 Y69.28 E174.53006
G1 X59.138 Y69.218 E174.53045
G1 X157.278 Y69.218 E174.78406
G1 X157.34 Y69.28 E174.78552
G1 X157.278 Y69.28
G0 F9000 X157.531 Y69.472
G1 F1500 X157.593 Y69.534 E174.78697
G1 X157.593 Y167.674 E176.41905
G1 X157.531 Y167.736 E176.42051
G1 X157.531 Y167.674
G1 X157.531 Y69.534 E176.67411
G1 X157.531 Y69.472
G1 F2400 E173.67411
G0 F9000 X157.279 Y167.926
G1 F2400 E176.67411
G1 F1500 X157.341 Y167.926 E176.67514
G1 X157.279 Y167.988 E176.67553
G1 X59.139 Y167.988 E178.30761
G1 X59.077 Y167.926 E178.30907
G1 X59.139 Y167.926
G1 X157.279 Y167.926 E178.56267
G1 F2400 E175.56267
G0 F9000 X59.157 Y167.654
G0 X58.885 Y69.471
G1 F2400 E178.56267
G1 F1500 X58.885 Y69.533 E178.5637
G1 X58.885 Y167.673 E180.19578
G1 X58.885 Y167.735 E180.19681
G1 X58.823 Y167.673 E180.1972
G1 X58.823 Y69.533 E180.45081
G1 X58.885 Y69.471 E180.4512
G1 F2400 E177.4512
G0 F9000 X157.259 Y69.552
G0 X157.331 Y167.526
G1 F2400 E180.4512
G0 F9000 X157.131 Y167.526
;TYPE:WALL-OUTER
