;FLAVOR:Marlin
;TIME:32264
;Filament used: 10.9205m
;Layer height: 0.1
;MINX:57.017
;MINY:57.016
;MINZ:0.3
;MAXX:177.983
;MAXY:177.983
;MAXZ:31.5
;Generated with Cura_SteamEngine 4.11.0
M140 S60
M105
M190 S60
M104 S210
M105
M109 S210
M82 ;absolute extrusion mode
; Ender 3 Custom Start G-code
G92 E0 ; Reset Extruder
G28 ; Home all axes
G1 Z2.0 F3000 ; Move Z Axis up little to prevent scratching of Heat Bed
G1 X0.1 Y20 Z0.3 F5000.0 ; Move to start position
G1 X0.1 Y200.0 Z0.3 F1500.0 E15 ; Draw the first line
G1 X0.4 Y200.0 Z0.3 F5000.0 ; Move to side a little
G1 X0.4 Y20 Z0.3 F1500.0 E30 ; Draw the second line
G92 E0 ; Reset Extruder
G1 Z2.0 F3000 ; Move Z Axis up little to prevent scratching of Heat Bed
G1 X5 Y20 Z0.3 F5000.0 ; Move over to prevent blob squish
M141 S0
G92 E0
G92 E0
G1 F2400 E-3
;LAYER_COUNT:313
;LAYER:0
M107
G0 F6000 X60.337 Y60.304 Z0.3
;TYPE:SKIRT
G1 F2400 E0
G1 F1200 X61.023 Y59.665 E0.04677
G1 X61.761 Y59.087 E0.09354
G1 X62.546 Y58.574 E0.14032
G1 X63.372 Y58.129 E0.18713
G1 X64.233 Y57.756 E0.23395
G1 X65.122 Y57.458 E0.28072
G1 X66.033 Y57.237 E0.32749
G1 X66.96 Y57.095 E0.37428
G1 X67.729 Y57.037 E0.41276
G1 X68.185 Y57.023 E0.43552
G1 X68.73 Y57.017 E0.46271
G1 X166.126 Y57.016 E5.32181
G1 X166.984 Y57.027 E5.36462
G1 X167.92 Y57.08 E5.4114
G1 X168.849 Y57.213 E5.45822
G1 X169.762 Y57.425 E5.50498
G1 X170.655 Y57.713 E5.55179
G1 X171.519 Y58.077 E5.59856
G1 X172.35 Y58.513 E5.64538
G1 X173.14 Y59.018 E5.69216
G1 X173.884 Y59.588 E5.73892
G1 X174.551 Y60.194 E5.78388
G1 X174.697 Y60.338 E5.79411
G1 X175.336 Y61.025 E5.84092
G1 X175.915 Y61.763 E5.88772
G1 X176.428 Y62.548 E5.9345
G1 X176.872 Y63.374 E5.98129
G1 X177.245 Y64.235 E6.0281
G1 X177.543 Y65.124 E6.07488
G1 X177.764 Y66.035 E6.12165
G1 X177.907 Y66.962 E6.16844
G1 X177.966 Y67.788 E6.20976
G1 X177.981 Y68.304 E6.23551
G1 X177.983 Y68.63 E6.25178
G1 X177.983 Y166.246 E11.12186
G1 X177.973 Y166.979 E11.15843
G1 X177.92 Y167.915 E11.2052
G1 X177.788 Y168.844 E11.25202
G1 X177.577 Y169.758 E11.29881
G1 X177.289 Y170.65 E11.34558
G1 X176.926 Y171.515 E11.39238
G1 X176.491 Y172.346 E11.43918
G1 X175.986 Y173.136 E11.48595
G1 X175.416 Y173.881 E11.53275
G1 X174.752 Y174.607 E11.58184
G1 X174.608 Y174.751 E11.592
G1 X173.917 Y175.385 E11.63878
G1 X173.175 Y175.959 E11.68559
G1 X172.386 Y176.466 E11.73238
G1 X171.558 Y176.905 E11.77913
G1 X170.694 Y177.272 E11.82596
G1 X169.803 Y177.564 E11.87274
G1 X168.89 Y177.778 E11.91953
G1 X167.962 Y177.915 E11.96633
G1 X167.209 Y177.966 E12.00398
G1 X166.684 Y177.981 E12.03018
G1 X166.428 Y177.983 E12.04296
G1 X68.718 Y177.982 E16.91773
G1 X68.015 Y177.972 E16.9528
G1 X67.078 Y177.919 E16.99963
G1 X66.15 Y177.786 E17.0464
G1 X65.236 Y177.574 E17.09321
G1 X64.344 Y177.286 E17.13997
G1 X63.479 Y176.922 E17.18679
G1 X62.649 Y176.486 E17.23357
G1 X61.858 Y175.981 E17.28039
G1 X61.114 Y175.411 E17.32714
G1 X60.42 Y174.778 E17.37401
G1 X60.277 Y174.636 E17.38406
G1 X59.64 Y173.948 E17.43084
G1 X59.065 Y173.207 E17.47763
G1 X58.554 Y172.421 E17.52441
G1 X58.112 Y171.593 E17.57123
G1 X57.743 Y170.731 E17.61801
G1 X57.448 Y169.841 E17.66479
G1 X57.23 Y168.929 E17.71157
G1 X57.09 Y168.002 E17.75834
G1 X57.039 Y167.315 E17.79271
G1 X57.032 Y167.156 E17.80065
G1 X57.021 Y166.772 E17.81982
G1 X57.017 Y166.332 E17.84177
G1 X57.018 Y68.708 E22.71225
G1 X57.028 Y68.014 E22.74688
G1 X57.082 Y67.077 E22.7937
G1 X57.215 Y66.149 E22.84048
G1 X57.426 Y65.235 E22.88727
G1 X57.715 Y64.343 E22.93405
G1 X58.079 Y63.478 E22.98087
G1 X58.515 Y62.648 E23.02765
G1 X59.02 Y61.858 E23.07443
G1 X59.59 Y61.113 E23.12123
G1 X60.195 Y60.448 E23.16608
G1 X60.337 Y60.304 E23.17617
G0 F6000 X60.621 Y60.585
G1 F1200 X61.296 Y59.958 E23.22213
G1 X62.022 Y59.392 E23.26806
G1 X62.794 Y58.892 E23.31395
G1 X63.607 Y58.46 E23.35988
G1 X64.455 Y58.1 E23.40584
G1 X65.33 Y57.815 E23.45175
G1 X66.227 Y57.607 E23.49769
G1 X67.139 Y57.478 E23.54364
G1 X67.745 Y57.436 E23.57395
G1 X67.895 Y57.43 E23.58144
G1 X68.19 Y57.423 E23.59616
G1 X68.73 Y57.417 E23.6231
G1 X166.126 Y57.416 E28.48221
G1 X166.978 Y57.427 E28.52472
G1 X167.897 Y57.48 E28.57064
G1 X168.808 Y57.613 E28.61657
G1 X169.704 Y57.824 E28.6625
G1 X170.579 Y58.112 E28.70846
G1 X171.425 Y58.475 E28.75438
G1 X172.236 Y58.91 E28.8003
G1 X173.007 Y59.414 E28.84625
G1 X173.731 Y59.983 E28.89219
G1 X174.27 Y60.479 E28.92874
G1 X174.416 Y60.623 E28.93897
G1 X175.043 Y61.298 E28.98493
G1 X175.609 Y62.024 E29.03086
G1 X176.11 Y62.796 E29.07677
G1 X176.542 Y63.609 E29.1227
G1 X176.901 Y64.457 E29.16865
G1 X177.186 Y65.332 E29.21456
G1 X177.394 Y66.229 E29.2605
G1 X177.523 Y67.141 E29.30645
G1 X177.567 Y67.802 E29.3395
G1 X177.575 Y68.032 E29.35098
G1 X177.581 Y68.308 E29.36475
G1 X177.583 Y68.63 E29.38082
G1 X177.583 Y166.241 E34.25065
G1 X177.573 Y166.974 E34.28722
G1 X177.52 Y167.893 E34.33315
G1 X177.388 Y168.804 E34.37907
G1 X177.178 Y169.7 E34.42499
G1 X176.89 Y170.575 E34.47095
G1 X176.528 Y171.421 E34.51685
G1 X176.093 Y172.233 E34.56281
G1 X175.59 Y173.004 E34.60874
G1 X175.022 Y173.728 E34.65465
G1 X174.469 Y174.324 E34.69521
G1 X174.325 Y174.468 E34.70537
G1 X173.647 Y175.09 E34.75128
G1 X172.917 Y175.651 E34.79721
G1 X172.141 Y176.147 E34.84315
G1 X171.325 Y176.573 E34.88908
G1 X170.475 Y176.927 E34.93502
G1 X169.597 Y177.205 E34.98096
G1 X168.699 Y177.407 E35.02688
G1 X167.786 Y177.53 E35.07285
G1 X167.195 Y177.567 E35.10239
G1 X166.963 Y177.575 E35.11397
G1 X166.681 Y177.581 E35.12804
G1 X166.425 Y177.583 E35.14081
G1 X68.723 Y177.582 E40.01519
G1 X68.02 Y177.572 E40.05026
G1 X67.101 Y177.519 E40.09619
G1 X66.19 Y177.386 E40.14212
G1 X65.294 Y177.175 E40.18804
G1 X64.42 Y176.887 E40.23396
G1 X63.573 Y176.524 E40.27993
G1 X62.762 Y176.089 E40.32584
G1 X61.991 Y175.585 E40.3718
G1 X61.267 Y175.017 E40.41771
G1 X60.702 Y174.495 E40.45608
G1 X60.559 Y174.353 E40.46614
G1 X59.935 Y173.676 E40.51207
G1 X59.371 Y172.948 E40.55802
G1 X58.873 Y172.174 E40.60393
G1 X58.444 Y171.359 E40.64988
G1 X58.087 Y170.51 E40.69583
G1 X57.805 Y169.634 E40.74175
G1 X57.601 Y168.736 E40.78769
G1 X57.475 Y167.824 E40.83362
G1 X57.438 Y167.297 E40.85998
G1 X57.431 Y167.138 E40.86792
G1 X57.421 Y166.768 E40.88638
G1 X57.417 Y166.328 E40.90834
G1 X57.418 Y68.713 E45.77837
G1 X57.428 Y68.019 E45.813
G1 X57.481 Y67.1 E45.85892
G1 X57.614 Y66.189 E45.90485
G1 X57.825 Y65.293 E45.95078
G1 X58.114 Y64.419 E45.9967
G1 X58.477 Y63.573 E46.04263
G1 X58.912 Y62.761 E46.08859
G1 X59.416 Y61.991 E46.1345
G1 X59.985 Y61.267 E46.18044
G1 X60.479 Y60.729 E46.21688
G1 X60.621 Y60.585 E46.22697
G0 F6000 X60.906 Y60.866
G1 F1200 X61.568 Y60.252 E46.27202
G1 X62.282 Y59.698 E46.31711
G1 X63.042 Y59.21 E46.36217
G1 X63.842 Y58.791 E46.40722
G1 X64.676 Y58.445 E46.45227
G1 X65.537 Y58.173 E46.49732
G1 X66.419 Y57.979 E46.54237
G1 X67.761 Y57.836 E46.6097
G1 X67.911 Y57.83 E46.61719
G1 X68.195 Y57.823 E46.63137
G1 X68.73 Y57.817 E46.65806
G1 X166.126 Y57.816 E51.51716
G1 X166.972 Y57.827 E51.55938
G1 X167.874 Y57.88 E51.60445
G1 X168.767 Y58.012 E51.64949
G1 X169.646 Y58.223 E51.69459
G1 X170.502 Y58.511 E51.73965
G1 X171.329 Y58.873 E51.78469
G1 X172.121 Y59.307 E51.82974
G1 X172.871 Y59.81 E51.8748
G1 X173.574 Y60.377 E51.91986
G1 X173.99 Y60.764 E51.9482
G1 X174.136 Y60.908 E51.95843
G1 X174.75 Y61.57 E52.00348
G1 X175.303 Y62.284 E52.04854
G1 X175.791 Y63.044 E52.0936
G1 X176.21 Y63.844 E52.13865
G1 X176.557 Y64.678 E52.18372
G1 X176.828 Y65.539 E52.22875
G1 X177.022 Y66.421 E52.2738
G1 X177.137 Y67.317 E52.31887
G1 X177.167 Y67.815 E52.34376
G1 X177.175 Y68.045 E52.35524
G1 X177.181 Y68.311 E52.36852
G1 X177.183 Y68.63 E52.38443
G1 X177.183 Y166.235 E57.25397
G1 X177.173 Y166.968 E57.29054
G1 X177.121 Y167.87 E57.33562
G1 X176.989 Y168.763 E57.38065
G1 X176.779 Y169.641 E57.42569
G1 X176.491 Y170.498 E57.4708
G1 X176.13 Y171.325 E57.51582
G1 X175.696 Y172.117 E57.56087
G1 X175.194 Y172.868 E57.60594
G1 X174.628 Y173.572 E57.65101
G1 X174.186 Y174.041 E57.68316
G1 X174.042 Y174.185 E57.69332
G1 X173.376 Y174.795 E57.73838
G1 X172.659 Y175.344 E57.78343
G1 X171.895 Y175.826 E57.8285
G1 X171.092 Y176.24 E57.87357
G1 X170.256 Y176.58 E57.9186
G1 X169.393 Y176.846 E57.96365
G1 X168.51 Y177.034 E58.00869
G1 X167.182 Y177.167 E58.07528
G1 X166.95 Y177.175 E58.08686
G1 X166.678 Y177.181 E58.10043
G1 X166.422 Y177.183 E58.1132
G1 X68.729 Y177.182 E62.98713
G1 X68.026 Y177.172 E63.0222
G1 X67.124 Y177.119 E63.06728
G1 X66.231 Y176.987 E63.11232
G1 X65.353 Y176.776 E63.15737
G1 X64.497 Y176.488 E63.20243
G1 X63.67 Y176.126 E63.24746
G1 X62.878 Y175.692 E63.29252
G1 X62.127 Y175.19 E63.33759
G1 X61.424 Y174.623 E63.38265
G1 X60.984 Y174.211 E63.41272
G1 X60.841 Y174.069 E63.42277
G1 X60.229 Y173.405 E63.46783
G1 X59.678 Y172.689 E63.5129
G1 X59.193 Y171.927 E63.55796
G1 X58.776 Y171.126 E63.60302
G1 X58.433 Y170.291 E63.64805
G1 X58.164 Y169.429 E63.6931
G1 X57.973 Y168.546 E63.73818
G1 X57.838 Y167.28 E63.8017
G1 X57.831 Y167.121 E63.80964
G1 X57.821 Y166.765 E63.8274
G1 X57.817 Y166.325 E63.84936
G1 X57.818 Y68.719 E68.71894
G1 X57.828 Y68.025 E68.75357
G1 X57.881 Y67.123 E68.79865
G1 X58.014 Y66.23 E68.84369
G1 X58.225 Y65.352 E68.88874
G1 X58.512 Y64.496 E68.93378
G1 X58.875 Y63.669 E68.97884
G1 X59.309 Y62.877 E69.0239
G1 X59.812 Y62.127 E69.06895
G1 X60.379 Y61.424 E69.11401
G1 X60.764 Y61.01 E69.14222
G1 X60.906 Y60.866 E69.1523
G1 F2400 E66.1523
;MESH:body_A.stl
G0 F6000 X92.973 Y116.132
G0 X91.538 Y116.132
G0 X91.708 Y118.059
;TYPE:WALL-INNER
G1 F2400 E69.1523
G1 F1200 X143.292 Y118.059 E71.72584
G1 X143.292 Y71.898 E74.02882
G1 X91.708 Y71.898 E76.60236
G1 X91.708 Y118.059 E78.90534
G0 F6000 X92.108 Y117.659
;TYPE:WALL-OUTER
G1 F1200 X142.892 Y117.659 E81.43896
G1 X142.892 Y72.298 E83.70203
G1 X92.108 Y72.298 E86.23566
G1 X92.108 Y117.659 E88.49873
G1 F2400 E85.49873
G0 F6000 X91.808 Y117.659
G0 X91.538 Y116.132
G0 X92.973 Y116.132
G0 X67.352 Y118.255
G0 X68.827 Y118.255
G0 X68.617 Y166.383
;TYPE:WALL-INNER
G1 F2400 E88.49873
G1 F1200 X68.617 Y68.617 E93.37629
G1 X166.383 Y68.616 E98.25386
G1 X166.384 Y166.184 E103.12155
G1 X166.384 Y166.383 E103.13147
G1 X166.185 Y166.383 E103.1379
G1 X68.617 Y166.383 E108.00558
G0 F6000 X68.249 Y166.783
;TYPE:WALL-OUTER
G1 F1200 X68.217 Y166.751 E108.00784
G1 X68.217 Y68.249 E112.92213
G1 X68.249 Y68.217 E112.92438
G1 X166.75 Y68.216 E117.83862
G1 X166.783 Y68.25 E117.84098
G1 X166.784 Y166.75 E122.75517
G1 X166.75 Y166.783 E122.75753
G1 X68.249 Y166.783 E127.67177
G0 F6000 X68.657 Y166.377
G0 X69.007 Y165.993
;TYPE:SKIN
G1 F1200 X69.007 Y69.007 E132.51042
G1 X165.993 Y69.006 E137.34907
G1 X165.994 Y165.993 E142.18777
G1 X69.007 Y165.993 E147.02647
G1 F2400 E144.02647
G0 F6000 X68.727 Y165.993
G0 X68.827 Y118.199
G0 X67.352 Y118.199
G0 X92.961 Y116.806
G0 X91.518 Y118.199
G1 F2400 E147.02647
G0 F6000 X91.318 Y118.449
G1 F1200 X143.682 Y118.449 E149.63892
G1 X143.682 Y71.508 E151.98082
G1 X91.318 Y71.508 E154.59327
G1 X91.318 Y118.449 E156.93517
G1 F2400 E153.93517
G0 F6000 X91.598 Y118.199
G0 X94.351 Y118.229
G0 X94.351 Y116.794
G0 X91.512 Y167.648
G0 X91.512 Y166.173
G0 X69.666 Y166.273
G1 F2400 E156.93517
G0 F6000 X69.666 Y165.832
G1 F1200 X69.166 Y165.332 E156.97044
G0 F6000 X69.166 Y164.767
G1 F1200 X70.231 Y165.832 E157.04558
G0 F6000 X70.797 Y165.832
G1 F1200 X69.166 Y164.201 E157.16066
G0 F6000 X69.166 Y163.635
G1 F1200 X71.363 Y165.832 E157.31567
G0 F6000 X71.929 Y165.832
G1 F1200 X69.166 Y163.07 E157.51058
G0 F6000 X69.166 Y162.504
G1 F1200 X72.494 Y165.832 E157.74539
G0 F6000 X73.06 Y165.832
G1 F1200 X69.166 Y161.938 E158.02013
G0 F6000 X69.166 Y161.373
G1 F1200 X73.626 Y165.832 E158.33477
G0 F6000 X74.191 Y165.832
G1 F1200 X69.166 Y160.807 E158.68931
G0 F6000 X69.166 Y160.241
G1 F1200 X74.757 Y165.832 E159.08379
G0 F6000 X75.323 Y165.832
G1 F1200 X69.166 Y159.676 E159.51816
G0 F6000 X69.166 Y159.11
G1 F1200 X75.888 Y165.832 E159.99244
G0 F6000 X76.454 Y165.832
G1 F1200 X69.166 Y158.544 E160.50664
G0 F6000 X69.166 Y157.978
G1 F1200 X77.02 Y165.832 E161.06079
G0 F6000 X77.585 Y165.832
G1 F1200 X69.166 Y157.413 E161.65479
G0 F6000 X69.166 Y156.847
G1 F1200 X78.151 Y165.832 E162.28873
G0 F6000 X78.717 Y165.832
G1 F1200 X69.166 Y156.281 E162.96261
G0 F6000 X69.166 Y155.716
G1 F1200 X79.282 Y165.832 E163.67635
G0 F6000 X79.848 Y165.832
G1 F1200 X69.166 Y155.15 E164.43002
G0 F6000 X69.166 Y154.584
G1 F1200 X80.414 Y165.832 E165.22363
G0 F6000 X80.979 Y165.832
G1 F1200 X69.166 Y154.019 E166.0571
G0 F6000 X69.166 Y153.453
G1 F1200 X81.545 Y165.832 E166.9305
G0 F6000 X82.111 Y165.832
G1 F1200 X69.166 Y152.887 E167.84384
G0 F6000 X69.166 Y152.322
G1 F1200 X82.677 Y165.832 E168.79708
G0 F6000 X83.242 Y165.832
G1 F1200 X69.166 Y151.756 E169.79022
G0 F6000 X69.166 Y151.19
G1 F1200 X83.808 Y165.832 E170.82329
G0 F6000 X84.374 Y165.832
G1 F1200 X69.166 Y150.625 E171.89626
G0 F6000 X69.166 Y150.059
G1 F1200 X84.939 Y165.832 E173.00913
G0 F6000 X85.505 Y165.832
G1 F1200 X69.166 Y149.493 E174.16194
G0 F6000 X69.166 Y148.928
G1 F1200 X86.071 Y165.832 E175.35464
G0 F6000 X86.636 Y165.832
G1 F1200 X69.166 Y148.362 E176.58724
G0 F6000 X69.166 Y147.796
G1 F1200 X87.202 Y165.832 E177.85978
G0 F6000 X87.768 Y165.832
G1 F1200 X69.166 Y147.23 E179.17225
G0 F6000 X69.166 Y146.665
G1 F1200 X88.333 Y165.832 E180.52459
G0 F6000 X88.899 Y165.832
G1 F1200 X69.166 Y146.099 E181.91686
G0 F6000 X69.166 Y145.533
G1 F1200 X89.465 Y165.832 E183.34906
G0 F6000 X90.03 Y165.832
G1 F1200 X69.166 Y144.968 E184.82113
G0 F6000 X69.166 Y144.402
G1 F1200 X90.596 Y165.832 E186.33313
G0 F6000 X91.162 Y165.832
G1 F1200 X69.166 Y143.836 E187.88507
G0 F6000 X69.166 Y143.271
G1 F1200 X91.728 Y165.832 E189.4769
G0 F6000 X92.293 Y165.832
G1 F1200 X69.166 Y142.705 E191.10864
G0 F6000 X69.166 Y142.139
G1 F1200 X92.859 Y165.832 E192.78031
G0 F6000 X93.425 Y165.832
G1 F1200 X69.166 Y141.574 E194.49188
G0 F6000 X69.166 Y141.008
G1 F1200 X93.99 Y165.832 E196.24334
G0 F6000 X94.556 Y165.832
G1 F1200 X69.166 Y140.442 E198.03474
G0 F6000 X69.166 Y139.877
G1 F1200 X95.122 Y165.832 E199.86605
G0 F6000 X95.687 Y165.832
G1 F1200 X69.166 Y139.311 E201.73725
G0 F6000 X69.166 Y138.745
G1 F1200 X96.253 Y165.832 E203.64838
G0 F6000 X96.819 Y165.832
G1 F1200 X69.166 Y138.179 E205.59945
G0 F6000 X69.166 Y137.614
G1 F1200 X97.384 Y165.832 E207.59038
G0 F6000 X97.95 Y165.832
G1 F1200 X69.166 Y137.048 E209.62125
G0 F6000 X69.166 Y136.482
G1 F1200 X98.516 Y165.832 E211.69205
G0 F6000 X99.081 Y165.832
G1 F1200 X69.166 Y135.917 E213.80271
G0 F6000 X69.166 Y135.351
G1 F1200 X99.647 Y165.832 E215.95331
G0 F6000 X100.213 Y165.832
G1 F1200 X69.166 Y134.785 E218.14385
G0 F6000 X69.166 Y134.22
G1 F1200 X100.778 Y165.832 E220.37424
G0 F6000 X101.344 Y165.832
G1 F1200 X69.166 Y133.654 E222.64457
G0 F6000 X69.166 Y133.088
G1 F1200 X101.91 Y165.832 E224.95484
G0 F6000 X102.476 Y165.832
G1 F1200 X69.166 Y132.523 E227.30501
G0 F6000 X69.166 Y131.957
G1 F1200 X103.041 Y165.832 E229.69507
G0 F6000 X103.607 Y165.832
G1 F1200 X69.166 Y131.391 E232.12507
G0 F6000 X69.166 Y130.826
G1 F1200 X104.173 Y165.832 E234.59497
G0 F6000 X104.738 Y165.832
G1 F1200 X69.166 Y130.26 E237.10476
G0 F6000 X69.166 Y129.694
G1 F1200 X105.304 Y165.832 E239.65449
G0 F6000 X105.87 Y165.832
G1 F1200 X69.166 Y129.129 E242.24412
G0 F6000 X69.166 Y128.563
G1 F1200 X106.435 Y165.832 E244.87365
G0 F6000 X107.001 Y165.832
G1 F1200 X69.166 Y127.997 E247.54312
G0 F6000 X69.166 Y127.431
G1 F1200 X107.567 Y165.832 E250.25251
G0 F6000 X108.132 Y165.832
G1 F1200 X69.166 Y126.866 E253.00178
G0 F6000 X69.166 Y126.3
G1 F1200 X108.698 Y165.832 E255.79097
G0 F6000 X109.264 Y165.832
G1 F1200 X69.166 Y125.734 E258.6201
G0 F6000 X69.166 Y125.169
G1 F1200 X109.829 Y165.832 E261.4891
G0 F6000 X110.395 Y165.832
G1 F1200 X69.166 Y124.603 E264.39803
G0 F6000 X69.166 Y124.037
G1 F1200 X110.961 Y165.832 E267.34689
G0 F6000 X111.527 Y165.832
G1 F1200 X69.166 Y123.472 E270.33565
G0 F6000 X69.166 Y122.906
G1 F1200 X112.092 Y165.832 E273.36431
G0 F6000 X112.658 Y165.832
G1 F1200 X69.166 Y122.34 E276.43291
G0 F6000 X69.166 Y121.775
G1 F1200 X113.224 Y165.832 E279.5414
G0 F6000 X113.789 Y165.832
